X: 87
T:Old Torn Petticoat
R:Reel
N:I combined parts of Sully's version 
B:Sully's Irish Music Book
M:4/4
L:1/8
Z:added by Alf 
K:Ador
AB|c2Bc AGEF|G2BG dGBG|c2Bc AGEF|GABG A2AB|
cABG AGEF|G2BG dGBG|cABG AGED|[1 EAAG A2:|[2 GABG A2||
AB\
|cdef g2ef|gedc BGGB|cdef g2ed|eaag a2ga|
bagb agef|gfge dBGB|cABG AGED|GABG A2:|
